X: 61
T:Miss Supertest's Victory Reel
% Nottingham Music Database
S:Peter Durber, via EF
M:4/4
L:1/4
K:D
P:A
d/2e/2|"D"f/2d/2A/2d/2 "A"e/2c/2A/2c/2|"G"B/2G/2D/2G/2 "D"A/2F/2D/2F/2|\
"G"B/2G/2D/2G/2 "D"A/2F/2D/2F/2|"A"E/2A/2"E7"^G/2B/2 "A7"A/2c/2e/2=g/2|
"D"f/2d/2A/2d/2 "A"e/2c/2A/2c/2|"G"B/2G/2D/2G/2 "D"A/2F/2D/2F/2|\
"G"B/2G/2D/2G/2 "D"A/2d/2f/2a/2|"A7"g/2e/2c/2A/2 "D"d:|
K:A
P:B
c/2d/2|"A"e/2c/2A/2c/2 f/2c/2A/2c/2|"A"e/2c/2a/2c/2 e/2c/2A/2c/2|\
"A"e/2c/2A/2c/2 f/2c/2A/2c/2|"A"e/2c/2e/2c/2 "E7"Bc/2d/2|
"A"e/2c/2A/2c/2 f/2c/2A/2c/2|"E"g/2e/2f/2g/2 "A"aa/2e/2|\
"D"f/2a/2g/2f/2 "E7"e/2d/2c/2B/2|"A"AA/2A/2 A:|<end>
<start>
